src/vectors/filter-chevron.svg

<svg width="24" height="24" viewBox="0 0 24 24" fill="none" xmlns="http://www.w3.org/2000/svg">
<g clip-path="url(#clip0_13_5)">
<path d="M6.70538 9.29462C7.09466 8.90534 7.72569 8.905 8.11538 9.29385L11.2937 12.4652C11.684 12.8547 12.316 12.8547 12.7063 12.4652L15.8846 9.29385C16.2743 8.905 16.9053 8.90534 17.2946 9.29462V9.29462C17.6842 9.68419 17.6842 10.3158 17.2946 10.7054L12.7071 15.2929C12.3166 15.6834 11.6834 15.6834 11.2929 15.2929L6.70538 10.7054C6.31581 10.3158 6.31581 9.68419 6.70538 9.29462V9.29462Z" fill="#2D2D2D"/>
</g>
<defs>
<clipPath id="clip0_13_5">
<rect width="24" height="24" fill="white"/>
</clipPath>
</defs>
</svg>

<svg xmlns="http://www.w3.org/2000/svg" width="24" height="24" fill="none">
    <path fill="#2D2D2D" d="M6.705 9.295a.998.998 0 0 1 1.41-.001l3.179 3.171a1 1 0 0 0 1.412 0l3.179-3.171a.998.998 0 0 1 1.41 1.412l-4.588 4.587a1 1 0 0 1-1.414 0l-4.588-4.588a.998.998 0 0 1 0-1.41Z"/>
</svg>
